img/makelog/bg-white-on-dark-shadow.svg

<svg fill="none" height="600" viewBox="0 0 800 600" width="800" xmlns="http://www.w3.org/2000/svg" xmlns:xlink="http://www.w3.org/1999/xlink"><filter id="a" color-interpolation-filters="sRGB" filterUnits="userSpaceOnUse" height="240" width="240" x="118" y="196"><feFlood flood-opacity="0" result="BackgroundImageFix"/><feColorMatrix in="SourceAlpha" result="hardAlpha" type="matrix" values="0 0 0 0 0 0 0 0 0 0 0 0 0 0 0 0 0 0 127 0"/><feOffset dy="16"/><feGaussianBlur stdDeviation="20"/><feColorMatrix type="matrix" values="0 0 0 0 0 0 0 0 0 0 0 0 0 0 0 0 0 0 0.2 0"/><feBlend in2="BackgroundImageFix" mode="normal" result="effect1_dropShadow_17_65"/><feBlend in="SourceGraphic" in2="effect1_dropShadow_17_65" mode="normal" result="shape"/></filter><path d="m0 0h800v600h-800z" fill="#3635e7"/><g filter="url(#a)"><circle cx="238" cy="300" fill="#3635e7" r="80"/><path clip-rule="evenodd" d="m261.158 275.579c1.975-3.951.374-8.757-3.578-10.733s-8.757-.374-10.733 3.578l-9.835 19.67-8.353-12.53c-1.648-2.472-4.53-3.827-7.485-3.519-2.955.307-5.496 2.227-6.6 4.986l-16 40c-1.641 4.102.355 8.758 4.457 10.399 4.102 1.64 8.758-.355 10.399-4.457l10.352-25.88 7.564 11.346c1.582 2.373 4.307 3.724 7.153 3.547s5.383-1.856 6.659-4.407zm5.059 7.77-10.119 20.238 6.315 18.945c1.397 4.191 5.927 6.456 10.119 5.059 4.191-1.397 6.457-5.928 5.06-10.119z" fill="#fff" fill-rule="evenodd"/></g><g fill="#fff"><path d="m358 322h10.54v-20.196c0-3.876 2.312-6.8 5.78-6.8 3.604 0 5.576 2.584 5.576 6.256v20.74h10.54v-20.128c0-4.012 2.312-6.868 5.78-6.868 3.672 0 5.44 2.584 5.44 6.528v20.468h10.54v-24.14c0-7.48-5.236-12.648-13.056-12.648-4.488 0-7.888 1.564-10.404 4.896h-.476c-2.176-3.06-5.712-4.896-10.404-4.896-4.76 0-7.888 2.38-9.384 4.76h-.544v-3.876h-9.928z"/><path d="m434.575 322.884c5.916 0 8.908-3.332 9.928-4.964h.544v4.08h10.472v-35.904h-10.54v4.08h-.544c-1.224-1.904-4.488-4.964-10.132-4.964-9.656 0-16.32 7.752-16.32 19.04s6.732 18.632 16.592 18.632zm2.38-9.52c-4.964 0-8.296-3.74-8.296-9.316 0-5.508 3.332-9.316 8.228-9.316 4.828 0 8.296 3.604 8.296 9.316 0 5.304-3.196 9.316-8.228 9.316z"/><path d="m498.274 322-12.444-22.984 11.56-12.92h-12.988l-10.2 12.24h-.408v-27.336h-10.54v51h10.54v-9.588l4.76-5.304 7.888 14.892z"/><path d="m516.825 322.884c9.724 0 16.252-4.828 17.884-12.376h-9.52c-1.02 2.244-3.808 4.284-7.956 4.284-4.964 0-8.296-3.264-8.636-7.82h26.452v-3.06c0-9.996-6.188-18.7-18.02-18.7-10.948 0-18.428 7.82-18.428 19.04 0 10.812 7.82 18.632 18.224 18.632zm-8.024-22.916c.476-3.536 3.74-6.732 8.228-6.732 4.692 0 7.82 2.924 8.228 6.732z"/><path d="m552.634 322h3.604v-9.248h-1.292c-1.904 0-2.992-1.088-2.992-3.264v-38.488h-10.54v39.712c0 7.004 4.012 11.288 11.22 11.288z"/><path d="m579.803 322.884c11.56 0 19.38-8.228 19.38-18.836s-7.82-18.836-19.312-18.836c-11.628 0-19.38 8.228-19.38 18.836s7.82 18.836 19.312 18.836zm0-9.52c-4.964 0-8.636-3.808-8.636-9.316 0-5.44 3.672-9.316 8.636-9.316 5.032 0 8.704 3.876 8.704 9.316s-3.672 9.316-8.704 9.316z"/><path d="m622.822 338.524c12.852 0 18.768-7.548 18.768-16.932v-35.496h-10.54v4.08h-.544c-1.088-1.768-4.42-4.964-10.268-4.964-9.18 0-16.184 7.14-16.184 18.632 0 11.56 7.14 18.564 16.456 18.564 5.712 0 8.84-3.196 10.064-4.964h.544v4.148c0 5.576-2.788 8.432-8.296 8.432-4.624 0-6.936-2.04-7.412-4.76h-9.656c.34 6.868 5.916 13.26 17.068 13.26zm.204-25.636c-4.964 0-8.296-3.468-8.296-9.044 0-5.508 3.332-9.112 8.228-9.112 4.828 0 8.296 3.4 8.296 9.112 0 5.304-3.196 9.044-8.228 9.044z"/></g></svg>

<svg width="800" height="600" viewBox="0 0 800 600" fill="none" xmlns="http://www.w3.org/2000/svg">
<rect width="800" height="600" fill="#3635E7"/>
<g filter="url(#filter0_d_17_65)">
<circle cx="238" cy="300" r="80" fill="#3635E7"/>
<path fill-rule="evenodd" clip-rule="evenodd" d="M261.158 275.579C263.133 271.628 261.532 266.822 257.58 264.846C253.628 262.87 248.823 264.472 246.847 268.424L237.012 288.094L228.659 275.564C227.011 273.092 224.129 271.737 221.174 272.045C218.219 272.352 215.678 274.272 214.574 277.031L198.574 317.031C196.933 321.133 198.929 325.789 203.031 327.43C207.133 329.07 211.789 327.075 213.43 322.973L223.782 297.093L231.346 308.439C232.928 310.812 235.653 312.163 238.499 311.986C241.345 311.809 243.882 310.13 245.158 307.579L261.158 275.579ZM266.217 283.349L256.098 303.587L262.413 322.532C263.81 326.723 268.34 328.988 272.532 327.591C276.723 326.194 278.989 321.663 277.592 317.472L266.217 283.349Z" fill="white"/>
</g>
<path d="M358 322H368.54V301.804C368.54 297.928 370.852 295.004 374.32 295.004C377.924 295.004 379.896 297.588 379.896 301.26V322H390.436V301.872C390.436 297.86 392.748 295.004 396.216 295.004C399.888 295.004 401.656 297.588 401.656 301.532V322H412.196V297.86C412.196 290.38 406.96 285.212 399.14 285.212C394.652 285.212 391.252 286.776 388.736 290.108H388.26C386.084 287.048 382.548 285.212 377.856 285.212C373.096 285.212 369.968 287.592 368.472 289.972H367.928V286.096H358V322Z" fill="white"/>
<path d="M434.575 322.884C440.491 322.884 443.483 319.552 444.503 317.92H445.047V322H455.519V286.096H444.979V290.176H444.435C443.211 288.272 439.947 285.212 434.303 285.212C424.647 285.212 417.983 292.964 417.983 304.252C417.983 315.54 424.715 322.884 434.575 322.884ZM436.955 313.364C431.991 313.364 428.659 309.624 428.659 304.048C428.659 298.54 431.991 294.732 436.887 294.732C441.715 294.732 445.183 298.336 445.183 304.048C445.183 309.352 441.987 313.364 436.955 313.364Z" fill="white"/>
<path d="M498.274 322L485.83 299.016L497.39 286.096H484.402L474.202 298.336H473.794V271H463.254V322H473.794V312.412L478.554 307.108L486.442 322H498.274Z" fill="white"/>
<path d="M516.825 322.884C526.549 322.884 533.077 318.056 534.709 310.508H525.189C524.169 312.752 521.381 314.792 517.233 314.792C512.269 314.792 508.937 311.528 508.597 306.972H535.049V303.912C535.049 293.916 528.861 285.212 517.029 285.212C506.081 285.212 498.601 293.032 498.601 304.252C498.601 315.064 506.421 322.884 516.825 322.884ZM508.801 299.968C509.277 296.432 512.541 293.236 517.029 293.236C521.721 293.236 524.849 296.16 525.257 299.968H508.801Z" fill="white"/>
<path d="M552.634 322H556.238V312.752H554.946C553.042 312.752 551.954 311.664 551.954 309.488V271H541.414V310.712C541.414 317.716 545.426 322 552.634 322Z" fill="white"/>
<path d="M579.803 322.884C591.363 322.884 599.183 314.656 599.183 304.048C599.183 293.44 591.363 285.212 579.871 285.212C568.243 285.212 560.491 293.44 560.491 304.048C560.491 314.656 568.311 322.884 579.803 322.884ZM579.803 313.364C574.839 313.364 571.167 309.556 571.167 304.048C571.167 298.608 574.839 294.732 579.803 294.732C584.835 294.732 588.507 298.608 588.507 304.048C588.507 309.488 584.835 313.364 579.803 313.364Z" fill="white"/>
<path d="M622.822 338.524C635.674 338.524 641.59 330.976 641.59 321.592V286.096H631.05V290.176H630.506C629.418 288.408 626.086 285.212 620.238 285.212C611.058 285.212 604.054 292.352 604.054 303.844C604.054 315.404 611.194 322.408 620.51 322.408C626.222 322.408 629.35 319.212 630.574 317.444H631.118V321.592C631.118 327.168 628.33 330.024 622.822 330.024C618.198 330.024 615.886 327.984 615.41 325.264H605.754C606.094 332.132 611.67 338.524 622.822 338.524ZM623.026 312.888C618.062 312.888 614.73 309.42 614.73 303.844C614.73 298.336 618.062 294.732 622.958 294.732C627.786 294.732 631.254 298.132 631.254 303.844C631.254 309.148 628.058 312.888 623.026 312.888Z" fill="white"/>
<defs>
<filter id="filter0_d_17_65" x="118" y="196" width="240" height="240" filterUnits="userSpaceOnUse" color-interpolation-filters="sRGB">
<feFlood flood-opacity="0" result="BackgroundImageFix"/>
<feColorMatrix in="SourceAlpha" type="matrix" values="0 0 0 0 0 0 0 0 0 0 0 0 0 0 0 0 0 0 127 0" result="hardAlpha"/>
<feOffset dy="16"/>
<feGaussianBlur stdDeviation="20"/>
<feColorMatrix type="matrix" values="0 0 0 0 0 0 0 0 0 0 0 0 0 0 0 0 0 0 0.2 0"/>
<feBlend mode="normal" in2="BackgroundImageFix" result="effect1_dropShadow_17_65"/>
<feBlend mode="normal" in="SourceGraphic" in2="effect1_dropShadow_17_65" result="shape"/>
</filter>
</defs>
</svg>
